X: 3
T: The Garden Of Daisies
R: hornpipe
M: 4/4
L: 1/8
K: Dmaj
(fg)a2(af) gbag|fefa gfef|dcde fdec|dedc AGFG|ABcA dcAG|FEFG ABcA|dcdf edce|[1d2dd defg:|[2d2ddd2|||:A2|dcde fefg|a2(af) defg|a2(af) ggag|f2(fe) defg||a2(af) gbag|fefa gfef|dcde fdec|dedc A2(fg)|a2(af) gbag|fefa gfef|dcde fdec|dedc AGFG||ABcA dcAG|FEFG ABcA|dcdf edce|[1d2ddd2:|[2d2dd defg|]


Tune 5080	Setting 5080

